svg/weather/sun_2_fill.svg

<?xml version="1.0" encoding="UTF-8"?>
<svg width="24px" height="24px" viewBox="0 0 24 24" version="1.1" xmlns="http://www.w3.org/2000/svg" xmlns:xlink="http://www.w3.org/1999/xlink">
    <title>sun_fill</title>
    <g id="Icon" stroke="none" stroke-width="1" fill="none" fill-rule="evenodd">
        <g id="Weather" transform="translate(-673.000000, -240.000000)" fill-rule="nonzero">
            <g id="sun_fill" transform="translate(673.000000, 240.000000)">
                <path d="M24,0 L24,24 L0,24 L0,0 L24,0 Z M12.5935,23.2578 L12.5819,23.2595 L12.5109,23.295 L12.4919,23.2987 L12.4767,23.295 L12.4057,23.2595 C12.3958,23.2564 12.387,23.259 12.3821,23.2649 L12.378,23.2758 L12.3609,23.7031 L12.3659,23.7235 L12.3769,23.7357 L12.4805,23.8097 L12.4953,23.8136 L12.5071,23.8097 L12.6107,23.7357 L12.6233,23.7197 L12.6267,23.7031 L12.6096,23.2758 C12.6076,23.2657 12.601,23.2593 12.5935,23.2578 Z M12.8584,23.1453 L12.8445,23.1473 L12.6598,23.2397 L12.6499,23.2499 L12.6472,23.2611 L12.6651,23.6906 L12.6699,23.7034 L12.6784,23.7105 L12.8793,23.8032 C12.8914,23.8069 12.9022,23.803 12.9078,23.7952 L12.9118,23.7812 L12.8777,23.1665 C12.8753,23.1546 12.8674,23.147 12.8584,23.1453 Z M12.143,23.1473 C12.1332,23.1424 12.1222,23.1453 12.1156,23.1526 L12.1099,23.1665 L12.0758,23.7812 C12.0751,23.7927 12.0828,23.8019 12.0926,23.8046 L12.1083,23.8032 L12.3092,23.7105 L12.3186,23.7024 L12.3225,23.6906 L12.3404,23.2611 L12.3372,23.2485 L12.3278,23.2397 L12.143,23.1473 Z" id="MingCute"></path>
                <path d="M7.05051,11 C6.40223,11.6353 6,12.5207 6,13.5 C6,15.3685667 7.46427444,16.8951267 9.30796448,16.9948211 L9.5,17 L19.4845,17 C17.8699,19.412 15.1204,21 12,21 C7.02944,21 3,16.9706 3,12 C3,11.7746667 3.00828,11.5512444 3.02455556,11.3300593 L3.05493,11 L7.05051,11 Z M11.5,8 C12.8807,8 14,9.11929 14,10.5 C14,11.825472 12.9684531,12.9100378 11.6643744,12.9946823 L11.5,13 L9.5,13 C9.22386,13 9,13.2239 9,13.5 C9,13.7454222 9.17687704,13.9496 9.41012499,13.9919429 L9.5,14 L21,14 C21.5523,14 22,14.4477 22,15 C22,15.51285 21.613973,15.9355092 21.1166239,15.9932725 L21,16 L9.5,16 C8.11929,16 7,14.8807 7,13.5 C7,12.174528 8.03153766,11.0899622 9.33562452,11.0053177 L9.5,11 L11.5,11 C11.7761,11 12,10.7761 12,10.5 C12,10.2545778 11.8230914,10.0504 11.5898645,10.0080571 L11.5,10 L3,10 C2.44772,10 2,9.55228 2,9 C2,8.48716857 2.38604429,8.06449347 2.88337975,8.0067278 L3,8 L11.5,8 Z M12,3 C16.9706,3 21,7.02944 21,12 C21,12.338 20.9814,12.6717 20.9451,13 L13.9495,13 C14.5978,12.3647 15,11.4793 15,10.5 C15,8.567 13.433,7 11.5,7 L4.51555,7 C6.13007,4.58803 8.87958,3 12,3 Z" id="形状" fill="#09244B"></path>
            </g>
        </g>
    </g>
</svg>

<svg xmlns="http://www.w3.org/2000/svg" width="24" height="24"><g fill="none" fill-rule="nonzero"><path d="M24 0v24H0V0h24ZM12.594 23.258l-.012.002-.071.035-.02.004-.014-.004-.071-.036c-.01-.003-.019 0-.024.006l-.004.01-.017.428.005.02.01.013.104.074.015.004.012-.004.104-.074.012-.016.004-.017-.017-.427c-.002-.01-.009-.017-.016-.018Zm.264-.113-.014.002-.184.093-.01.01-.003.011.018.43.005.012.008.008.201.092c.012.004.023 0 .029-.008l.004-.014-.034-.614c-.003-.012-.01-.02-.02-.022Zm-.715.002a.023.023 0 0 0-.027.006l-.006.014-.034.614c0 .012.007.02.017.024l.015-.002.201-.093.01-.008.003-.011.018-.43-.003-.012-.01-.01-.184-.092Z"/><path fill="#09244B" d="M7.05 11a3.5 3.5 0 0 0 2.257 5.995l.193.005h9.985a9 9 0 0 1-16.46-5.67l.03-.33H7.05Zm4.45-3a2.5 2.5 0 0 1 .164 4.995L11.5 13h-2a.5.5 0 0 0-.09.992L9.5 14H21a1 1 0 0 1 .117 1.993L21 16H9.5a2.5 2.5 0 0 1-.164-4.995L9.5 11h2a.5.5 0 0 0 .09-.992L11.5 10H3a1 1 0 0 1-.117-1.993L3 8h8.5Zm.5-5a9 9 0 0 1 8.945 10H13.95a3.5 3.5 0 0 0-2.45-6H4.516A8.991 8.991 0 0 1 12 3Z"/></g></svg>
